google-analytics-dashboard-for-wp/lite/assets/vue/img/yir-icon-em-visitors.svg

<svg width="31" height="31" viewBox="0 0 31 31" fill="none" xmlns="http://www.w3.org/2000/svg">
    <path fill-rule="evenodd" clip-rule="evenodd" d="M11.6429 15.5C14.1243 15.5 16.1429 13.4814 16.1429 11C16.1429 8.51857 14.1243 6.5 11.6429 6.5C9.16145 6.5 7.14288 8.51857 7.14288 11C7.14288 13.4814 9.16145 15.5 11.6429 15.5ZM11.6429 9.07143C12.71 9.07143 13.5715 9.93286 13.5715 11C13.5715 12.0671 12.71 12.9286 11.6429 12.9286C10.5757 12.9286 9.71431 12.0671 9.71431 11C9.71431 9.93286 10.5757 9.07143 11.6429 9.07143ZM6.20431 21.9286H11.7072C11.6686 22.1343 11.6429 22.3529 11.6429 22.5714V24.5H2.64288V22.5714C2.64288 19.5757 8.63431 18.0714 11.6429 18.0714C12.3629 18.0714 13.25 18.1614 14.1886 18.3286C13.2757 18.9457 12.5172 19.7171 12.08 20.6557C12.0093 20.6557 11.9354 20.6525 11.8615 20.6493C11.7875 20.6461 11.7136 20.6429 11.6429 20.6429C9.67574 20.6429 7.47717 21.2857 6.20431 21.9286ZM21.2857 18.7143C18.92 18.7143 14.2143 20.0129 14.2143 22.5714V24.5H28.3572V22.5714C28.3572 20.0129 23.6515 18.7143 21.2857 18.7143ZM24.5 13.5714C24.5 14.78 23.8186 15.8214 22.8415 16.3743C22.3786 16.6314 21.8515 16.7857 21.2857 16.7857C20.72 16.7857 20.1929 16.6314 19.73 16.3743C18.7529 15.8214 18.0715 14.78 18.0715 13.5714C18.0715 11.7971 19.5115 10.3571 21.2857 10.3571C23.06 10.3571 24.5 11.7971 24.5 13.5714Z" fill="#DC3FD6"/>
</svg>

<svg width="31" height="31" fill="none" xmlns="http://www.w3.org/2000/svg"><path fill-rule="evenodd" clip-rule="evenodd" d="M11.643 15.5c2.481 0 4.5-2.019 4.5-4.5s-2.019-4.5-4.5-4.5a4.505 4.505 0 00-4.5 4.5c0 2.481 2.018 4.5 4.5 4.5zm0-6.429c1.067 0 1.928.862 1.928 1.929a1.926 1.926 0 01-1.928 1.929A1.926 1.926 0 019.714 11c0-1.067.862-1.929 1.929-1.929zM6.204 21.93h5.503a3.513 3.513 0 00-.064.642V24.5h-9v-1.929c0-2.995 5.991-4.5 9-4.5.72 0 1.607.09 2.546.258-.913.617-1.672 1.388-2.109 2.327-.07 0-.145-.003-.219-.007-.074-.003-.147-.006-.218-.006-1.967 0-4.166.643-5.439 1.286zm15.082-3.215c-2.366 0-7.072 1.299-7.072 3.857V24.5h14.143v-1.929c0-2.558-4.706-3.857-7.071-3.857zm3.214-5.143c0 1.209-.681 2.25-1.659 2.803a3.19 3.19 0 01-1.555.412 3.191 3.191 0 01-1.556-.412c-.977-.553-1.659-1.594-1.659-2.803a3.215 3.215 0 016.429 0z" fill="#DC3FD6"/></svg>
